X:456
T: Auswandererlied (170d), S. 370f
N: T0344
O: Luxemburg
S: Singendes Volk, Esch-Alzette, 1937 posth.]
N: Esch-Alzette, hhh Dominik Mller, 1.6.1915
R: Abschieds- und Wanderlieder, Heimatlieder]
M: 4/4
L: 1/16
K: G
D4 | G4G4A4A4 | B4d2c2A4B2A2 | G4z8
c4 | c4e4e4d2c2 | B4d4d4c2
B2 | A4c4c4B2A2 | G4B4d4
G3B | d4A2c2B6A2 | G4z8

@@@ Tune index: 8510
